pix_core/i/db.svg

<svg preserveAspectRatio="xMinYMid meet" viewBox="0 0 448 512" xmlns="http://www.w3.org/2000/svg"><path d="m448 80v48c0 44.2-100.3 80-224 80s-224-35.8-224-80v-48c0-44.2 100.3-80 224-80s224 35.8 224 80zm-54.8 134.7c20.8-7.4 39.9-16.9 54.8-28.6v101.9c0 44.2-100.3 80-224 80s-224-35.8-224-80v-101.9c14.9 11.8 34 21.2 54.8 28.6 44.9 16 104.7 25.3 169.2 25.3s124.3-9.3 169.2-25.3zm-393.2 131.4c14.9 11.8 34 21.2 54.8 28.6 44.9 16 104.7 25.3 169.2 25.3s124.3-9.3 169.2-25.3c20.8-7.4 39.9-16.9 54.8-28.6v85.9c0 44.2-100.3 80-224 80s-224-35.8-224-80z" fill="#fff"/></svg>

<svg xmlns="http://www.w3.org/2000/svg" viewBox="0 0 448 512" preserveAspectRatio="xMinYMid meet"><!--!Font Awesome Free 6.5.2 by @fontawesome - https://fontawesome.com License - https://fontawesome.com/license/free Copyright 2024 Fonticons, Inc.--><path fill="#fff" d="M448 80v48c0 44.2-100.3 80-224 80S0 172.2 0 128V80C0 35.8 100.3 0 224 0S448 35.8 448 80zM393.2 214.7c20.8-7.4 39.9-16.9 54.8-28.6V288c0 44.2-100.3 80-224 80S0 332.2 0 288V186.1c14.9 11.8 34 21.2 54.8 28.6C99.7 230.7 159.5 240 224 240s124.3-9.3 169.2-25.3zM0 346.1c14.9 11.8 34 21.2 54.8 28.6C99.7 390.7 159.5 400 224 400s124.3-9.3 169.2-25.3c20.8-7.4 39.9-16.9 54.8-28.6V432c0 44.2-100.3 80-224 80S0 476.2 0 432V346.1z"/></svg>
